X: 1
T: October
R: reel
M: 4/4
L: 1/8
K: Emin
eB~B2 cA~A2|BGFE FEGB|eB~B2 cA~A2|BGFE ~F3B|
[1eB~B2 ABcA|BcAB cABc|BAGE eBGE|FEFG ~E3B:|
[2gefg efge|cdec decd|ecBG eBGE|FEFG E4||
|:gB~B2 cA~A2|fA~A2 ~B2ef|geag fedB|cAec ~B2gf|
[1eB~B2 ABcA|BcAB cABc|BAGE eBGE|FEFG ~E3B:|
[2gefg efge|cdec decd|ecBG eBGE|FEFG E4||

